public/static/icons/navbar/ic_elements.svg

<svg height="24" viewBox="0 0 24 24" width="24" xmlns="http://www.w3.org/2000/svg"><g transform="translate(2 2)"><path d="m1.24 5.29 8.52 4.63c.15.08.33.08.48 0l8.52-4.63c.1589429-.07849054.255262-.24469564.2443403-.42162595-.0109216-.17693031-.1269506-.3300275-.2943403-.38837405l-8.52-3.48c-.1217307-.05000901-.25826932-.05000901-.38 0l-8.52 3.48c-.16738965.05834655-.28341872.21144374-.29434035.38837405-.01092162.17693031.08539743.34313541.24434035.42162595z"/><path d="m18.71 8.66-1.83-.78-6.64 3.61c-.15.08-.33.08-.48 0l-6.64-3.61-1.83.78c-.15795725.08291942-.25689688.24660123-.25689688.425s.09893963.34208058.25689688.425l8.52 4.9c.14731686.0900956.3326831.0900956.48 0l8.52-4.9c.1504272-.10011238.2318861-.27622145.2107734-.45567922s-.1412191-.33185328-.3107734-.39432078z"/><path d="m18.71 13.1-1.56-.68-6.91 3.76c-.15.08-.33.08-.48 0l-6.91-3.76-1.56.68c-.16246416.0842404-.26444513.2519944-.26444513.435s.10198097.3507596.26444513.435l8.52 5c.15.08.33.08.48 0l8.52-5c.1549803-.1015235.2394467-.2817773.2182903-.465838-.0211564-.1840606-.1443173-.3404492-.3182903-.404162z"/></g></svg>

<svg xmlns="http://www.w3.org/2000/svg" width="24" height="24" viewBox="0 0 24 24">
  <g transform="translate(2 2)">
    <path d="M1.24,5.29 L9.76,9.92 C9.91,10 10.09,10 10.24,9.92 L18.76,5.29 C18.9189429,5.21150946 19.015262,5.04530436 19.0043403,4.86837405 C18.9934187,4.69144374 18.8773897,4.53834655 18.71,4.48 L10.19,1 C10.0682693,0.949990991 9.93173068,0.949990991 9.81,1 L1.29,4.48 C1.12261035,4.53834655 1.00658128,4.69144374 0.995659654,4.86837405 C0.98473803,5.04530436 1.08105708,5.21150946 1.24,5.29 Z"/>
    <path d="M18.71,8.66 L16.88,7.88 L10.24,11.49 C10.09,11.57 9.91,11.57 9.76,11.49 L3.12,7.88 L1.29,8.66 C1.13204275,8.74291942 1.03310312,8.90660123 1.03310312,9.085 C1.03310312,9.26339877 1.13204275,9.42708058 1.29,9.51 L9.81,14.41 C9.95731686,14.5000956 10.1426831,14.5000956 10.29,14.41 L18.81,9.51 C18.9604272,9.40988762 19.0418861,9.23377855 19.0207734,9.05432078 C18.9996607,8.87486301 18.8795543,8.7224675 18.71,8.66 L18.71,8.66 Z"/>
    <path d="M18.71,13.1 L17.15,12.42 L10.24,16.18 C10.09,16.26 9.91,16.26 9.76,16.18 L2.85,12.42 L1.29,13.1 C1.12753584,13.1842404 1.02555487,13.3519944 1.02555487,13.535 C1.02555487,13.7180056 1.12753584,13.8857596 1.29,13.97 L9.81,18.97 C9.96,19.05 10.14,19.05 10.29,18.97 L18.81,13.97 C18.9649803,13.8684765 19.0494467,13.6882227 19.0282903,13.504162 C19.0071339,13.3201014 18.883973,13.1637128 18.71,13.1 Z"/>
  </g>
</svg>
